X: 33
T: No_130_Dream_Song.krn
%%abc-version 2.0
%%abcx-abcm2ps-target-version 5.9.1 (29 Sep 2008)
%%abc-creator hum2abc beta
%%abcx-conversion-date 2020/08/10 18:54:57
%%gracespace 0 6 6
%%humdrum-veritas 4035833323
%%humdrum-veritas-data 4029259079
%%linebreak <none>
%%barnumbers 0
L: 1/8
M: 3/8
%%staves {1 2}
V: 1 clef=treble
V: 2 clef=bass
K: Db
[V:1] [K:clef=treble][M:3/8]A>BA ||  
[V:2] [K:clef=bass][M:3/8]G,,G,,G,, ||  
[V:1] [M:5/8]F2>E2D ||  
[V:2] [M:5/8](3:2:1z4 ||  
[V:1] [M:3/8]F3 | 
[V:2] [M:3/8]z3 | 
[V:1] E>FE | 
[V:2] z3 | 
[V:1] D>DD- | 
[V:2] z3 | 
[V:1] D>DD- | 
[V:2] z3 | 
[V:1] D3 ]|:  
[V:2] z3 ]|:  
[V:1] z DD | 
[V:2] z3 | 
[V:1] F>GF- | 
[V:2] z3 | 
[V:1] FED | 
[V:2] z3 | 
[V:1] F>GF ||  
[V:2] z3 ||  
[V:1] [M:2/8]F2 | 
[V:2] [M:2/8]z2 | 
[V:1] D2 ||  
[V:2] z2 ||  
[V:1] [M:5/8]DB,2CB,[K:clef=bass] | 
[V:2] [M:5/8](3:2:1z4 | 
[V:1] A,2F,>F,F,- | 
[V:2] (3:2:1z4 | 
[V:1] F,2-F,>F,F,- ||  
[V:2] (3:2:1z4 ||  
[V:1] [M:3/8]F,3 | 
[V:2] [M:3/8]z3 | 
[V:1] A,A,2 ||  
[V:2] z3 ||  
[V:1] [M:5/8]F,2>E,2D, ||  
[V:2] [M:5/8](3:2:1z4 ||  
[V:1] [M:4/8]F,2G, F, | 
[V:2] [M:4/8]z4 | 
[V:1] E,2F, E, ||  
[V:2] z4 ||  
[V:1] [M:3/8]D,>D,D,- | 
[V:2] [M:3/8]z3 | 
[V:1] D,3 :|]  
[V:2] z3 :|]  


